src/img/icons/plus.svg

<svg width="32" height="32" viewBox="0 0 32 32" fill="none" xmlns="http://www.w3.org/2000/svg">
<path d="M15.1291 16.9955V22.0742C15.1291 22.3365 15.2182 22.5564 15.3965 22.734C15.5751 22.9113 15.7961 23 16.0597 23C16.3235 23 16.5429 22.9113 16.7181 22.734C16.8929 22.5564 16.9804 22.3365 16.9804 22.0742V16.9955H22.0742C22.3365 16.9955 22.5564 16.9063 22.734 16.728C22.9113 16.5497 23 16.3286 23 16.0648C23 15.8013 22.9113 15.582 22.734 15.4068C22.5564 15.2317 22.3365 15.1442 22.0742 15.1442H16.9804V9.92584C16.9804 9.66353 16.8912 9.44358 16.7129 9.266C16.5346 9.08867 16.3135 9 16.0497 9C15.7862 9 15.5669 9.08867 15.3917 9.266C15.2166 9.44358 15.1291 9.66353 15.1291 9.92584V15.1442H9.92584C9.66353 15.1442 9.44358 15.2333 9.266 15.4116C9.08867 15.5902 9 15.8112 9 16.0748C9 16.3386 9.08867 16.558 9.266 16.7332C9.44358 16.908 9.66353 16.9955 9.92584 16.9955H15.1291ZM16.0088 30C14.0707 30 12.2525 29.6326 10.5544 28.8977C8.85619 28.1628 7.37354 27.1614 6.10642 25.8936C4.8393 24.6255 3.83805 23.1428 3.10268 21.4456C2.36756 19.7482 2 17.9313 2 15.9948C2 14.0584 2.36744 12.2396 3.10232 10.5385C3.83719 8.83716 4.83856 7.35635 6.10642 6.0961C7.37453 4.83586 8.85717 3.83805 10.5544 3.10268C12.2518 2.36756 14.0687 2 16.0052 2C17.9416 2 19.7604 2.36744 21.4615 3.10232C23.1628 3.83719 24.6436 4.83451 25.9039 6.09426C27.1641 7.35402 28.1619 8.83544 28.8973 10.5385C29.6324 12.2416 30 14.0592 30 15.9912C30 17.9293 29.6326 19.7475 28.8977 21.4456C28.1628 23.1438 27.1655 24.625 25.9057 25.8892C24.646 27.1533 23.1646 28.1545 21.4615 28.8925C19.7584 29.6308 17.9408 30 16.0088 30ZM16.0077 28.1483C19.3869 28.1483 22.2552 26.9672 24.6126 24.6048C26.9697 22.2425 28.1483 19.3717 28.1483 15.9923C28.1483 12.6131 26.9715 9.74482 24.6177 7.38742C22.264 5.03026 19.3914 3.85168 16 3.85168C12.6258 3.85168 9.75747 5.02855 7.39516 7.38226C5.03284 9.73598 3.85168 12.6086 3.85168 16C3.85168 19.3742 5.03284 22.2425 7.39516 24.6048C9.75747 26.9672 12.6283 28.1483 16.0077 28.1483Z" fill="#131212"/>
</svg>

<svg xmlns="http://www.w3.org/2000/svg" viewBox="0 0 32 32">
  <path fill="currentColor" d="M15.13 16.995v5.08a.909.909 0 0 0 .93.925.904.904 0 0 0 .92-.926v-5.079h5.094a.897.897 0 0 0 .66-.267.903.903 0 0 0 .266-.663.903.903 0 0 0-.926-.92H16.98v-5.22a.894.894 0 0 0-.267-.659A.903.903 0 0 0 16.05 9a.903.903 0 0 0-.92.926v5.218H9.925a.894.894 0 0 0-.66.268.904.904 0 0 0-.266.663.904.904 0 0 0 .926.92h5.203ZM16.008 30c-1.938 0-3.757-.367-5.455-1.102a14.19 14.19 0 0 1-4.448-3.004 14.23 14.23 0 0 1-3.003-4.448C2.368 19.748 2 17.93 2 15.995c0-1.937.367-3.755 1.102-5.456a14.05 14.05 0 0 1 3.004-4.443 14.32 14.32 0 0 1 4.448-2.993C12.252 2.368 14.07 2 16.005 2c1.937 0 3.755.367 5.457 1.102a14.153 14.153 0 0 1 4.442 2.992 14.14 14.14 0 0 1 2.993 4.445C29.632 12.242 30 14.059 30 15.99c0 1.938-.367 3.756-1.102 5.455a14.24 14.24 0 0 1-2.992 4.443 14.144 14.144 0 0 1-4.444 3.003C19.758 29.631 17.94 30 16.009 30Zm-.001-1.852c3.379 0 6.247-1.18 8.605-3.543 2.357-2.363 3.535-5.233 3.535-8.613 0-3.379-1.177-6.247-3.53-8.605C22.264 5.03 19.39 3.852 16 3.852c-3.374 0-6.243 1.177-8.605 3.53C5.033 9.736 3.852 12.61 3.852 16c0 3.374 1.18 6.242 3.543 8.605 2.362 2.362 5.233 3.543 8.613 3.543Z"/>
</svg>
